X: 8125
T: Controversial, The
R: reel
M: 4/4
K: Gmajor
|:~d3e dB ~B2|g2bg abge|d2 Bd gedB|BAGB ABce|~d2Be dB ~B2|
gabg abge|d2 B/c/d gedB|1 AGFA G3 e:|2 AGFA G3 A||
|:B3 d ~A2 BA|GEDE GA B/c/d|egab gedc|BAGA BAA2|BedB A2BA|
GEDE GA B/c/d|egab gedc|1 BGAB G3 A:|2 BGAB G3 e||

